X: 132020 %9197
T: Michael Rogers' Slide
C: BB
L: 1/8
M: 12/8
R: slide
Q: 1/4=190
K: Em
"Em"E2F G2A B2e "D"dBA|"G"BcB "D"ABA "G"GBA "D"FED|
"Em"E2F G2A "Bm"B2A Bcd|"Em"edB "D"AFD "C"EGF "Em"E3 :|
"Em"B2e e2B "G"d^cd d=cB|"D"ABA AFD ABA AFD|
"Em"B2e e2B "D"d^cd def|"Em"edB "D"AFD "C"EGF "Em"E3 :|
